src/icons/openid.svg

<?xml version="1.0" encoding="UTF-8"?>
<svg xmlns="http://www.w3.org/2000/svg" xmlns:xlink="http://www.w3.org/1999/xlink" width="85.333333" height="32" viewBox="0 0 85.333333 32" version="1.1">
<g id="surface1">
<path style=" stroke:none;fill-rule:nonzero;fill:rgb(80.000001%,80.000001%,80.000001%);fill-opacity:1;" d="M 25.441406 11.972656 C 23.109375 10.519531 19.851562 9.617188 16.285156 9.617188 C 9.109375 9.617188 3.296875 13.203125 3.296875 17.628906 C 3.296875 21.679688 8.140625 25.003906 14.414062 25.574219 L 14.414062 23.242188 C 10.1875 22.714844 7.019531 20.402344 7.019531 17.628906 C 7.019531 14.480469 11.15625 11.90625 16.285156 11.90625 C 18.839844 11.90625 21.152344 12.542969 22.824219 13.578125 L 20.445312 15.054688 L 27.863281 15.054688 L 27.863281 10.476562 Z M 25.441406 11.972656 "/>
<path style=" stroke:none;fill-rule:nonzero;fill:rgb(100%,38.431373%,0%);fill-opacity:1;" d="M 14.414062 5.65625 L 14.414062 25.574219 L 18.136719 23.242188 L 18.136719 3.253906 Z M 14.414062 5.65625 "/>
<path style=" stroke:none;fill-rule:nonzero;fill:rgb(100%,38.431373%,0%);fill-opacity:1;" d="M 30.488281 16.371094 C 30.726562 15.550781 31.105469 14.84375 31.605469 14.226562 C 32.136719 13.609375 32.753906 13.109375 33.515625 12.757812 C 34.28125 12.375 35.160156 12.199219 36.160156 12.199219 C 37.191406 12.199219 38.070312 12.375 38.835938 12.757812 C 39.570312 13.109375 40.214844 13.609375 40.714844 14.226562 C 41.214844 14.84375 41.597656 15.550781 41.832031 16.371094 C 42.097656 17.164062 42.214844 18.019531 42.214844 18.898438 C 42.214844 19.78125 42.097656 20.632812 41.832031 21.457031 C 41.597656 22.25 41.214844 22.957031 40.714844 23.574219 C 40.214844 24.191406 39.570312 24.6875 38.835938 25.042969 C 38.070312 25.421875 37.191406 25.601562 36.160156 25.601562 C 35.160156 25.601562 34.28125 25.421875 33.515625 25.042969 C 32.753906 24.6875 32.136719 24.191406 31.605469 23.574219 C 31.105469 22.957031 30.726562 22.25 30.488281 21.457031 C 30.226562 20.632812 30.109375 19.78125 30.109375 18.898438 C 30.109375 18.019531 30.226562 17.164062 30.488281 16.371094 M 31.605469 20.984375 C 31.78125 21.664062 32.078125 22.25 32.488281 22.808594 C 32.871094 23.335938 33.371094 23.75 33.988281 24.101562 C 34.605469 24.425781 35.308594 24.570312 36.160156 24.570312 C 37.011719 24.570312 37.75 24.425781 38.367188 24.101562 C 38.984375 23.75 39.453125 23.335938 39.863281 22.808594 C 40.246094 22.25 40.539062 21.664062 40.714844 20.984375 C 40.894531 20.308594 41.011719 19.605469 41.011719 18.898438 C 41.011719 18.195312 40.894531 17.519531 40.714844 16.84375 C 40.539062 16.167969 40.246094 15.550781 39.863281 15.019531 C 39.453125 14.492188 38.984375 14.050781 38.367188 13.726562 C 37.75 13.40625 37.011719 13.257812 36.160156 13.257812 C 35.308594 13.257812 34.605469 13.40625 33.988281 13.726562 C 33.371094 14.050781 32.871094 14.492188 32.488281 15.019531 C 32.078125 15.550781 31.78125 16.167969 31.605469 16.84375 C 31.429688 17.519531 31.339844 18.195312 31.339844 18.898438 C 31.339844 19.605469 31.429688 20.308594 31.605469 20.984375 Z M 44.035156 16.050781 L 44.035156 17.8125 L 44.066406 17.8125 C 44.332031 17.164062 44.773438 16.667969 45.359375 16.3125 C 45.945312 15.960938 46.625 15.785156 47.386719 15.785156 C 48.09375 15.785156 48.710938 15.902344 49.238281 16.167969 C 49.765625 16.429688 50.207031 16.785156 50.5625 17.253906 C 50.882812 17.695312 51.148438 18.222656 51.324219 18.8125 C 51.5 19.398438 51.589844 20.046875 51.589844 20.691406 C 51.589844 21.367188 51.5 21.984375 51.324219 22.574219 C 51.148438 23.160156 50.882812 23.691406 50.5625 24.128906 C 50.207031 24.601562 49.765625 24.953125 49.238281 25.21875 C 48.710938 25.453125 48.09375 25.601562 47.386719 25.601562 C 47.035156 25.601562 46.710938 25.542969 46.359375 25.484375 C 46.035156 25.394531 45.710938 25.246094 45.449219 25.101562 C 45.152344 24.925781 44.890625 24.71875 44.652344 24.453125 C 44.449219 24.21875 44.273438 23.925781 44.15625 23.574219 L 44.125 23.574219 L 44.125 28.746094 L 42.980469 28.746094 L 42.980469 16.050781 L 44.035156 16.050781 M 50.265625 19.28125 C 50.148438 18.78125 49.972656 18.371094 49.738281 17.988281 C 49.472656 17.636719 49.148438 17.3125 48.769531 17.078125 C 48.386719 16.84375 47.945312 16.753906 47.386719 16.753906 C 46.769531 16.753906 46.242188 16.84375 45.828125 17.078125 C 45.390625 17.285156 45.066406 17.578125 44.800781 17.929688 C 44.566406 18.28125 44.390625 18.722656 44.273438 19.195312 C 44.183594 19.664062 44.125 20.164062 44.125 20.691406 C 44.125 21.191406 44.183594 21.664062 44.300781 22.132812 C 44.417969 22.601562 44.59375 23.042969 44.859375 23.394531 C 45.125 23.777344 45.449219 24.070312 45.859375 24.308594 C 46.269531 24.542969 46.800781 24.660156 47.386719 24.660156 C 47.945312 24.660156 48.386719 24.542969 48.769531 24.308594 C 49.148438 24.070312 49.472656 23.777344 49.738281 23.394531 C 49.972656 23.042969 50.148438 22.601562 50.265625 22.132812 C 50.382812 21.664062 50.445312 21.191406 50.445312 20.691406 C 50.445312 20.222656 50.382812 19.753906 50.265625 19.28125 Z M 53.5 22.28125 C 53.617188 22.71875 53.792969 23.101562 54.058594 23.453125 C 54.292969 23.808594 54.617188 24.101562 55 24.308594 C 55.378906 24.542969 55.851562 24.660156 56.378906 24.660156 C 57.203125 24.660156 57.847656 24.453125 58.320312 24.011719 C 58.789062 23.574219 59.113281 23.015625 59.289062 22.28125 L 60.433594 22.28125 C 60.199219 23.335938 59.757812 24.160156 59.113281 24.71875 C 58.464844 25.304688 57.554688 25.601562 56.378906 25.601562 C 55.644531 25.601562 55.027344 25.453125 54.5 25.21875 C 53.941406 24.953125 53.527344 24.601562 53.175781 24.128906 C 52.851562 23.691406 52.589844 23.160156 52.441406 22.574219 C 52.265625 21.984375 52.207031 21.367188 52.207031 20.691406 C 52.207031 20.074219 52.265625 19.488281 52.441406 18.898438 C 52.589844 18.3125 52.851562 17.78125 53.175781 17.3125 C 53.527344 16.84375 53.941406 16.488281 54.5 16.195312 C 55.027344 15.933594 55.644531 15.785156 56.378906 15.785156 C 57.113281 15.785156 57.761719 15.933594 58.289062 16.226562 C 58.820312 16.519531 59.257812 16.929688 59.582031 17.402344 C 59.90625 17.902344 60.140625 18.460938 60.289062 19.074219 C 60.433594 19.691406 60.492188 20.339844 60.464844 20.984375 L 53.324219 20.984375 C 53.324219 21.398438 53.382812 21.839844 53.5 22.28125 M 59.113281 18.8125 C 58.964844 18.398438 58.761719 18.046875 58.523438 17.753906 C 58.261719 17.460938 57.964844 17.195312 57.613281 17.019531 C 57.230469 16.84375 56.851562 16.753906 56.378906 16.753906 C 55.910156 16.753906 55.496094 16.84375 55.144531 17.019531 C 54.792969 17.195312 54.46875 17.460938 54.234375 17.753906 C 53.96875 18.046875 53.765625 18.398438 53.617188 18.8125 C 53.46875 19.195312 53.382812 19.605469 53.324219 20.046875 L 59.316406 20.046875 C 59.316406 19.605469 59.230469 19.195312 59.113281 18.8125 Z M 62.167969 16.050781 L 62.167969 17.636719 L 62.199219 17.636719 C 62.433594 17.078125 62.816406 16.636719 63.375 16.285156 C 63.902344 15.960938 64.519531 15.785156 65.195312 15.785156 C 65.84375 15.785156 66.371094 15.871094 66.8125 16.019531 C 67.253906 16.195312 67.605469 16.429688 67.871094 16.753906 C 68.132812 17.046875 68.3125 17.429688 68.429688 17.871094 C 68.546875 18.3125 68.574219 18.8125 68.574219 19.371094 L 68.574219 25.335938 L 67.457031 25.335938 L 67.457031 19.546875 C 67.457031 19.136719 67.429688 18.78125 67.339844 18.429688 C 67.28125 18.105469 67.136719 17.8125 66.960938 17.546875 C 66.78125 17.285156 66.546875 17.105469 66.222656 16.960938 C 65.929688 16.8125 65.546875 16.753906 65.109375 16.753906 C 64.636719 16.753906 64.226562 16.8125 63.875 16.988281 C 63.519531 17.136719 63.226562 17.371094 62.992188 17.636719 C 62.726562 17.929688 62.550781 18.253906 62.402344 18.664062 C 62.257812 19.046875 62.199219 19.457031 62.167969 19.929688 L 62.167969 25.335938 L 61.050781 25.335938 L 61.050781 16.050781 Z M 70.75 12.492188 L 70.75 25.335938 L 69.546875 25.335938 L 69.546875 12.492188 Z M 76.128906 12.492188 C 78.097656 12.523438 79.566406 13.082031 80.566406 14.140625 C 81.535156 15.195312 82.035156 16.785156 82.035156 18.898438 C 82.035156 21.046875 81.535156 22.632812 80.566406 23.691406 C 79.566406 24.746094 78.097656 25.277344 76.128906 25.335938 L 71.691406 25.335938 L 71.691406 12.492188 L 76.128906 12.492188 M 75.539062 24.277344 C 76.449219 24.277344 77.246094 24.191406 77.921875 23.984375 C 78.566406 23.777344 79.125 23.484375 79.566406 23.042969 C 79.976562 22.601562 80.300781 22.042969 80.507812 21.367188 C 80.710938 20.691406 80.800781 19.871094 80.800781 18.898438 C 80.800781 17.960938 80.710938 17.136719 80.507812 16.460938 C 80.300781 15.753906 79.976562 15.195312 79.566406 14.785156 C 79.125 14.34375 78.566406 14.023438 77.921875 13.84375 C 77.246094 13.640625 76.449219 13.523438 75.539062 13.523438 L 72.925781 13.523438 L 72.925781 24.277344 Z M 75.539062 24.277344 "/>
</g>
</svg>

<svg role="img" viewBox="0 0 85.333 32" xmlns="http://www.w3.org/2000/svg"><path d="M25.441 11.973c-2.332-1.453-5.59-2.356-9.156-2.356-7.176 0-12.988 3.586-12.988 8.012 0 4.05 4.844 7.375 11.117 7.945v-2.332c-4.226-.527-7.394-2.84-7.394-5.613 0-3.149 4.136-5.723 9.265-5.723 2.555 0 4.867.637 6.54 1.672l-2.38 1.477h7.418v-4.578Zm0 0" style="stroke:none;fill-rule:nonzero;fill:rgb(80.000001%,80.000001%,80.000001%);fill-opacity:1"/><path d="M14.414 5.656v19.918l3.723-2.332V3.254Zm16.074 10.715a6.039 6.039 0 0 1 1.117-2.144c.532-.618 1.149-1.118 1.91-1.47.766-.382 1.645-.558 2.645-.558 1.031 0 1.91.176 2.676.559a5.427 5.427 0 0 1 1.879 1.469c.5.617.883 1.324 1.117 2.144.266.793.383 1.649.383 2.527 0 .883-.117 1.735-.383 2.559a6.085 6.085 0 0 1-1.117 2.117 5.474 5.474 0 0 1-1.88 1.469c-.765.379-1.644.559-2.675.559-1 0-1.879-.18-2.644-.559a5.627 5.627 0 0 1-1.91-1.469 6.151 6.151 0 0 1-1.118-2.117 8.387 8.387 0 0 1-.379-2.559c0-.878.118-1.734.38-2.527m1.116 4.613a5.24 5.24 0 0 0 .883 1.825c.383.527.883.941 1.5 1.293.617.324 1.32.468 2.172.468.852 0 1.59-.144 2.207-.468a4.906 4.906 0 0 0 1.496-1.293 5.701 5.701 0 0 0 .852-1.825c.18-.675.297-1.379.297-2.086 0-.703-.117-1.378-.297-2.054a5.477 5.477 0 0 0-.852-1.824c-.41-.528-.879-.97-1.496-1.293-.617-.32-1.355-.47-2.207-.47-.851 0-1.555.15-2.172.47a4.316 4.316 0 0 0-1.5 1.293 5.049 5.049 0 0 0-.883 1.824 8.079 8.079 0 0 0-.265 2.054c0 .707.09 1.41.265 2.086m12.43-4.933v1.762h.031a3.094 3.094 0 0 1 1.293-1.5c.586-.352 1.266-.528 2.028-.528.707 0 1.324.117 1.851.383.528.262.969.617 1.325 1.086.32.441.585.969.761 1.558.176.586.266 1.235.266 1.88a6.5 6.5 0 0 1-.266 1.882 5.153 5.153 0 0 1-.761 1.555 3.694 3.694 0 0 1-1.325 1.09 4.52 4.52 0 0 1-1.851.383c-.352 0-.676-.059-1.028-.118a4.364 4.364 0 0 1-.91-.382 3.318 3.318 0 0 1-.797-.649 2.583 2.583 0 0 1-.496-.879h-.031v5.172H42.98V16.051zm6.23 3.23a4.26 4.26 0 0 0-.527-1.293 3.644 3.644 0 0 0-.968-.91c-.383-.234-.825-.324-1.383-.324-.617 0-1.145.09-1.559.324a2.72 2.72 0 0 0-1.027.852c-.235.351-.41.793-.528 1.265-.09.47-.148.97-.148 1.496 0 .5.059.973.176 1.442.117.469.293.91.558 1.262.266.382.59.675 1 .914.41.234.942.351 1.528.351.558 0 1-.117 1.383-.351.378-.239.703-.532.968-.914.235-.352.41-.793.528-1.262.117-.469.18-.942.18-1.442a5.84 5.84 0 0 0-.18-1.41m3.235 3c.117.438.293.82.559 1.172.234.356.558.649.941.856.379.234.852.351 1.379.351.824 0 1.469-.207 1.941-.648.47-.438.793-.996.97-1.73h1.144c-.235 1.054-.676 1.878-1.32 2.437-.65.586-1.56.883-2.735.883a4.557 4.557 0 0 1-1.879-.383 3.419 3.419 0 0 1-1.324-1.09 4.471 4.471 0 0 1-.735-1.555c-.175-.59-.234-1.207-.234-1.883 0-.617.059-1.203.234-1.793a4.91 4.91 0 0 1 .735-1.585 3.784 3.784 0 0 1 1.324-1.118c.527-.261 1.145-.41 1.879-.41s1.383.149 1.91.442a3.79 3.79 0 0 1 1.293 1.175c.324.5.559 1.059.707 1.672a7.09 7.09 0 0 1 .176 1.91h-7.14c0 .414.058.856.175 1.297m5.613-3.468a3.583 3.583 0 0 0-.59-1.06c-.261-.292-.558-.558-.91-.733a2.82 2.82 0 0 0-1.234-.266c-.469 0-.883.09-1.234.266a2.797 2.797 0 0 0-.91.734 3.113 3.113 0 0 0-.618 1.058 5.331 5.331 0 0 0-.293 1.235h5.992a4.19 4.19 0 0 0-.203-1.235m3.055-2.762v1.586h.031c.235-.559.617-1 1.176-1.352a3.44 3.44 0 0 1 1.82-.5c.649 0 1.176.086 1.618.235.44.175.792.41 1.058.734.262.293.442.676.559 1.117.117.442.144.942.144 1.5v5.965h-1.117v-5.79a4.4 4.4 0 0 0-.117-1.116 2.377 2.377 0 0 0-.38-.883c-.179-.262-.413-.442-.737-.586-.293-.148-.676-.207-1.114-.207-.472 0-.882.058-1.234.234a2.438 2.438 0 0 0-.883.649c-.265.293-.441.617-.59 1.027-.144.383-.203.793-.234 1.266v5.406h-1.117V16.05Zm8.582-3.559v12.844h-1.203V12.492Zm5.379 0c1.969.031 3.437.59 4.437 1.649.97 1.054 1.47 2.644 1.47 4.757 0 2.149-.5 3.735-1.47 4.793-1 1.055-2.468 1.586-4.437 1.645h-4.44V12.492zm-.59 11.785c.91 0 1.707-.086 2.383-.293.644-.207 1.203-.5 1.644-.941.41-.441.735-1 .942-1.676.203-.676.293-1.496.293-2.469 0-.937-.09-1.761-.293-2.437-.207-.707-.531-1.266-.942-1.676-.441-.441-1-.762-1.644-.941-.676-.203-1.473-.32-2.383-.32h-2.613v10.753Zm0 0" style="stroke:none;fill-rule:nonzero;fill:rgb(100%,38.431373%,0%);fill-opacity:1"/></svg>
